src/assets/Imgs/dark/vault/wallet.svg

<svg fill="none" height="54" viewBox="0 0 54 54" width="54" xmlns="http://www.w3.org/2000/svg" xmlns:xlink="http://www.w3.org/1999/xlink"><linearGradient id="a" gradientUnits="userSpaceOnUse" x1="27" x2="27" y1="0" y2="153"><stop offset="0" stop-color="#ff7193" stop-opacity=".3"/><stop offset="1" stop-color="#5200ff" stop-opacity=".3"/></linearGradient><linearGradient id="b" gradientUnits="userSpaceOnUse" x1="27.5907" x2="28.0272" y1="23.318" y2="42.9447"><stop offset="0" stop-color="#ff7193"/><stop offset="1" stop-color="#ff7193"/></linearGradient><rect fill="url(#a)" height="54" rx="16" width="54"/><path d="m37.22 26.4249h3.03v-2.16c0-3.105-2.535-5.64-5.64-5.64h-17.22c-3.105 0-5.64 2.535-5.64 5.64v10.095c0 3.105 2.535 5.64 5.64 5.64h17.22c3.105 0 5.64-2.535 5.64-5.64v-1.785h-2.85c-1.62 0-3.105-1.185-3.24-2.805-.09-.945.27-1.83.9-2.445.555-.57 1.32-.9 2.16-.9z" fill="url(#b)"/><path d="m30.275 12.9249v5.8351h-12.885c-3.105 0-5.64 2.535-5.64 5.64v-5.64c0-1.785 1.095-3.3751 2.76-4.0051l11.91-4.5c1.86-.69 3.855.675 3.855 2.67z" fill="#a83752"/><path d="m41.6937 27.955v3.0901c0 .825-.66 1.4999-1.5 1.5299h-4.94c-1.62 0-3.105-1.185-3.24-2.805-.09-.945.27-1.83.9-2.445.555-.57 1.32-.9 2.16-.9h5.12c.84.03 1.5.705 1.5 1.53z" fill="#a83752"/><path d="m27.1176 25h-8.2352c-.4824 0-.8824-.4533-.8824-1s.4-1 .8824-1h8.2352c.4824 0 .8824.4533.8824 1s-.4 1-.8824 1z" fill="#281932"/></svg>

<svg width="54" height="54" viewBox="0 0 54 54" fill="none" xmlns="http://www.w3.org/2000/svg">
<g id="wallet">
<rect id="Rectangle 1282" width="54" height="54" rx="16" fill="url(#paint0_linear_188_1540)"/>
<g id="empty-wallet-remove">
<g id="vuesax/bulk/empty-wallet-remove">
<g id="empty-wallet-remove_2">
<path id="Vector" d="M37.22 26.4249H40.25V24.2649C40.25 21.1599 37.715 18.6249 34.61 18.6249H17.39C14.285 18.6249 11.75 21.1599 11.75 24.2649V34.3599C11.75 37.4649 14.285 39.9999 17.39 39.9999H34.61C37.715 39.9999 40.25 37.4649 40.25 34.3599V32.5749H37.4C35.78 32.5749 34.295 31.3899 34.16 29.7699C34.07 28.8249 34.43 27.9399 35.06 27.3249C35.615 26.7549 36.38 26.4249 37.22 26.4249Z" fill="url(#paint1_linear_188_1540)"/>
<path id="Vector_2" d="M30.275 12.9249V18.76H17.39C14.285 18.76 11.75 21.295 11.75 24.4V18.76C11.75 16.975 12.845 15.3849 14.51 14.7549L26.42 10.2549C28.28 9.5649 30.275 10.9299 30.275 12.9249Z" fill="#A83752"/>
<path id="Vector_3" d="M41.6937 27.955V31.0451C41.6937 31.8701 41.0337 32.545 40.1937 32.575H35.2537C33.6337 32.575 32.1487 31.39 32.0137 29.77C31.9237 28.825 32.2837 27.94 32.9137 27.325C33.4687 26.755 34.2337 26.425 35.0737 26.425H40.1937C41.0337 26.455 41.6937 27.13 41.6937 27.955Z" fill="#A83752"/>
<g id="Group">
<path id="Vector_4" d="M27.1176 25H18.8824C18.4 25 18 24.5467 18 24C18 23.4533 18.4 23 18.8824 23H27.1176C27.6 23 28 23.4533 28 24C28 24.5467 27.6 25 27.1176 25Z" fill="#281932"/>
</g>
</g>
</g>
</g>
</g>
<defs>
<linearGradient id="paint0_linear_188_1540" x1="27" y1="0" x2="27" y2="153" gradientUnits="userSpaceOnUse">
<stop stop-color="#FF7193" stop-opacity="0.3"/>
<stop offset="1" stop-color="#5200FF" stop-opacity="0.3"/>
</linearGradient>
<linearGradient id="paint1_linear_188_1540" x1="27.5907" y1="23.318" x2="28.0272" y2="42.9447" gradientUnits="userSpaceOnUse">
<stop stop-color="#FF7193"/>
<stop offset="1" stop-color="#FF7193"/>
</linearGradient>
</defs>
</svg>
